!!!!SEGMENT: pl-wn--mus-iii-62-778_zelenski-wladyslaw--moments-d-un-carnaval-op-52.krn
!!!cenid: 18xx:3729
!!!COM: Żeleński, Władysław
!!!COM-rismid: pe41024455
!!!CDT:
!!!CNT:
!!!OTL: Moments d'un carnaval op. 52
!!!PDT:
!!!AGN:
!!!SMS-siglum: PL-Wn
!!!SMS-shelfmark: Mus.III.62.778
!!!SMS-shelfwork: W
!!!SMS-variant:
!!!SMS-altvar:
!!!NIFC-rismid:
!!!URL-scan: https://polona.pl/item/moments-d-un-carnaval-valse-brillante-pour-le-piano-op-52,NjkwMjYxMjc/0/#info:metadata
!!!ONB-nifc:
!!!key: B-
**kern	**dynam	**kern	**dynam
*part1	*part1	*part1	*part1
*staff2	*	*staff1	*
*I"Piano	*	*I"Piano	*
*I'P-no	*	*I'P-no	*
*Ipiano	*	*Ipiano	*
*ICklav	*	*ICklav	*
*clefF4	*	*clefG2	*
*k[b-e-]	*	*k[b-e-]	*
*B-:	*	*B-:	*
*M3/4	*	*M3/4	*
=1	=1	=1	=1
!	!	!LO:TX:a:t=Tempo di Valse, ma non troppo vivo.	!
.	.	(<8qf/	p
*ped	*	*	*
4CC/	.	2.f\) 2.dd 2.ff	.
4F\ 4B- 4d	.	.	.
4F\ 4B- 4d	.	.	.
*Xped	*	*	*
=2	=2	=2	=2
.	.	(8qd/	.
*ped	*	*	*
4DD/	.	2.d/) 2.b- 2.dd	.
4D\ 4F#X 4B-	.	.	.
4D\ 4F# 4B-	.	.	.
*Xped	*	*	*
=3	=3	=3	=3
*ped	*	*	*
4EE-/	.	8r	.
.	.	(8f#X/L	<
*Xped	*	*	*
4E-\ 4B- 4c	.	8g/	.
.	.	8dd/	.
4E-\ 4B- 4c	.	8cc/	.
.	.	8f#/J	[
=4	=4	=4	=4
4EE-/	.	8g\L	.
.	.	8dd\	>
4E-\ 4B- 4c	.	8cc\	.
.	.	8aa\	.
4E-\ 4B- 4c	.	8gg\	.
.	.	8cc\J)	]
=5	=5	=5	=5
.	.	(<8qa/	p
*ped	*	*	*
4FF/	.	2.a\) 2.ee- 2.aa	.
4F\ 4A 4e-	.	.	.
4F\ 4A 4e-	.	.	.
*Xped	*	*	*
=6	=6	=6	=6
.	.	(<8qg/	.
*ped	*	*	*
4GG/	.	2.g\) 2.ee- 2.gg	.
4G\ 4B- 4e-	.	.	.
4G\ 4B- 4e-	.	.	.
*Xped	*	*	*
=7	=7	=7	=7
*ped	*	*	*
4AA/	.	8r	.
.	.	(8bn\L	<
*Xped	*	*	*
4F\ 4c 4e-	.	8cc\	.
.	.	8gg\	.
4F\ 4c 4e-	.	8ff\	.
.	.	8cc#X\J	[
!!LO:LB:g=original
=8	=8	=8	=8
4BBB-/	.	8dd\L	>
.	.	8gg\	.
4F\ 4B- 4d	.	8ff\	.
.	.	8ddd\	.
4F\ 4B- 4d	.	8bb-\	.
.	.	8ff\J)	]
=9	=9	=9	=9
*	*	*^	*
.	.	.	(<8qff/	.
!	!	!LO:TX:b:i:t=espr.	!	!
4GG/	.	2.bb-/	(4.ff\)	.
4G\ 4B- 4e-	.	.	.	.
.	.	.	8ee-\L	.
4G\ 4B- 4e-	.	.	8dd\	.
.	.	.	8ee-\J)	.
=10	=10	=10	=10	=10
.	.	.	(8qff/	.
4FF/	.	2.bb-/)	(2dd\	.
4F\ 4B- 4d	.	.	.	.
4F\ 4B- 4d	.	.	8cc\L	.
.	.	.	8b-\J)	.
=11	=11	=11	=11	=11
.	.	.	(8qa/	.
4EE-/	.	2dd/)	(4.a\	.
4E-\ 4A 4c	.	.	.	.
.	.	.	8f#X\L	<
4E-\ 4A 4c	.	[4cc/	8a\	.
.	.	.	8g\J)	.
=12	=12	=12	=12	=12
4DD/	.	8cc/]	8f\L	.
.	.	8ryy	(8a\	.
4D\ 4F 4B-	.	2ryy	8b-\	.
.	.	.	8dd\	.
4D\ 4F 4B-	.	.	8ff\	.
.	.	.	8bb-\J)	[
=13	=13	=13	=13	=13
*ped	*	*	*	*
.	.	.	(<8qdd/	.
4GG/	.	[2ddd/	(2dd\) 2bb-	.
4G\ 4B- 4en	.	.	.	.
*Xped	*	*	*	*
4G\ 4B- 4e	.	8ddd/]	8aa\L	.
.	.	8r	8gg\J)	.
=14	=14	=14	=14	=14
4AA/	.	2.aa/	(8ff\L	.
.	.	.	8een\	.
4A\ 4d 4f	.	.	8dd\	.
.	.	.	8cc#X\	.
4A\ 4d 4f	.	.	8dd\	.
.	.	.	8ee\J)	.
!!LO:LB:g=original
=15	=15	=15	=15	=15
4AA/	.	(2.aa/	(2ff\	.
4A\ 4c#X 4g	.	.	.	.
4A\ 4c# 4g	.	.	8een\L	.
.	.	.	8a\J)	.
=16	=16	=16	=16	=16
4DD/	.	8dd/)	(8g#X\L	.
.	.	8ryy	8b-\	.
[2F\ [2A [2d	.	2ryy	8a\	.
.	.	.	8en\	.
.	.	.	8gn\	.
.	.	.	8f\J	.
*	*	*v	*v	*
=17	=17	=17	=17
8F\] 8A] 8d]	.	8en\L	.
8r	.	8g\	.
4r	.	8f\)	.
.	.	(<8e\	.
4r	.	8g\	.
.	.	8f\J)	.
=18	=18	=18	=18
*ped	*	*	*
4BBB-/ 4BB-	.	8r	.
.	.	[8f/	.
4A\ 4d 4f	.	2f\] 2dd 2ff	.
*Xped	*	*	*
4A\ 4d 4f	.	.	.
=19	=19	=19	=19
*ped	*	*	*
4DD/ 4D	.	8r	.
.	.	(>[8d/	.
4D\ 4F#X 4B-	.	4d/] 4b- 4dd)	.
*Xped	*	*	*
4D\ 4F# 4B-	.	4d'/ 4f#X 4b- 4dd	.
=20	=20	=20	=20
*ped	*	*	*
4EE-/	.	8r	.
.	.	(8f#X\L	.
4E-\ 4B- 4c	.	8g\	.
.	.	8bn\	.
*Xped	*	*	*
4E-\ 4B- 4c	.	8cc\	.
.	.	8dd\J	.
=21	=21	=21	=21
4CC/	.	8ee-\L	.
.	.	8aa\	.
4G\ 4B- 4e-	.	8gg\	.
.	.	8aaa\	.
4G\ 4B- 4e-	.	8ggg\	.
.	.	8ccc\J)	.
!!LO:LB:g=original
=22	=22	=22	=22
*ped	*	*	*
4FF/	.	8r	.
.	.	([8a/	.
4F\ 4A 4e-	.	2a\]) 2ee- 2aa	.
*Xped	*	*	*
4F\ 4A 4e-	.	.	.
=23	=23	=23	=23
*ped	*	*	*
4GG/	.	8r	.
.	.	([8g/	.
4G\ 4B- 4e-	.	4g\]) 4ee- 4gg	.
*Xped	*	*	*
4G\ 4B- 4e-	.	4g\ 4ee- 4gg	.
=24	=24	=24	=24
4AA/	.	8r	.
.	.	(8f\L	.
4F\ 4c 4e-	.	8bn\	.
.	.	8cc\	.
4F\ 4c 4e-	.	8dd\	.
.	.	8ee-\J	.
=25	=25	=25	=25
4BB-/	.	8dd\L	.
.	.	8gg\	.
4F\ 4B- 4d	.	8ff\	.
.	.	8ggg\	.
4F\ 4B- 4d	.	8fff\	.
.	.	8bb-\J)	.
=26	=26	=26	=26
*^	*	*	*
4C-X/	4C-/yy	.	8r	f
.	.	.	(4cc\ 4ccc	.
(4a-X/	2c-X\ 2d-X	.	.	.
.	.	.	8dd-X\L) 8ddd-X	.
4f/)	.	.	8ee-\ 8eee-	.
.	.	.	8ff\J 8fff	.
=27	=27	=27	=27	=27
4BB-/	4BB-/yy	.	4.aa-X\ 4.aaa-X	.
(4d-X/	2B-\ 2d-	.	.	.
.	.	.	8gg-X\L 8ggg-X	.
4g-X/)	.	.	8ff\ 8fff	.
.	.	.	8ff-X\J 8fff-X	.
!!LO:LB:g=original
=28	=28	=28	=28	=28
4AA-X/	4AA-/yy	.	4.ee-X\ 4.eee-X	.
(4f/	2A-X\ 2c-X	.	.	.
.	.	.	8ee--\L 8eee--	.
4d-X/)	.	.	8dd-X\ 8ddd-X	.
.	.	.	8ccn\J 8ccc-X	.
=29	=29	=29	=29	=29
4GG-X/	4GG-/yy	.	4.cc-X\ 4.ccc-X	.
(4B-/	2G-X\ 2B-	.	.	.
.	.	.	8b-\L 8bb-	.
4d-X/)	.	.	8a-X\ 8aa-X	.
.	.	.	8g-X\J 8gg-X	.
*v	*v	*	*	*
=30	=30	=30	=30
4EEn/	.	8f\L 8ff	.
.	.	8g-X\ 8gg-X	.
2En\ 2B- 2d-X	.	(8a-X\ 8aa-X	.
.	.	8g-\) 8gg-	.
.	.	8b-\ 8bb-	.
.	.	8g-\J 8gg-	.
=31	=31	=31	=31
4FF/	.	4.f\ 4.ff	.
4F\ 4B- 4dn	.	.	.
.	.	(8b-\L	.
4F\ 4B- 4d	.	8cc\	.
.	.	8dd\J	.
=32	=32	=32	=32
4FF/	.	8ee-\L)	.
.	.	8aa\ 8aaa	>
4F\ 4A 4e-	.	(8gg\ 8ggg	.
.	.	8eee-\)	.
4F\ 4A 4e-	.	8g\ 8gg	.
.	.	8a\J 8aa	]
=33	=33	=33	=33
4B-\ 4d	.	4b-\ 4dd 4bb-	.
4BB-/	.	4r	.
4r	.	4d/ 4dd	f
!!LO:PB:g=original
=34	=34	=34	=34
!	!	!LO:TX:b:i:t=risoluto	!
8DD/ 8BB-	.	8dd\ 8ff#X 8aa 8ddd	.
8r	.	8r	.
*Xtuplet	*	*Xtuplet	*
12C#X/L 12c#X	.	4ryy	.
12d>\ 12dd>	.	.	.
12E-/J 12e-	.	.	.
4ryy	.	12d\L 12dd	.
.	.	12F#X</ 12f#X<	.
.	.	12a\J 12aa	.
=35	=35	=35	=35
4GG/	.	4.cc\ 4.dd 4.ccc	.
4D\ 4B-	.	.	.
.	.	(8b-/L	.
4D\ 4B-	.	8a/	.
.	.	8g/J)	.
=36	=36	=36	=36
*	*	*^	*
4AA/	.	[4cc/	(8g\L	.
.	.	.	8en\	.
4D\ 4F#X 4c	.	8cc/]	8f#X\	.
.	.	8r	8a\	<
4D\ 4F# 4c	.	4r	8cc\	.
.	.	.	8ff#X\J)	.
=37	=37	=37	=37	=37
4BB-/	.	[4aa/	[4dd\	[
4B-\ 4d 4g	.	8aa/L]	8dd\]	.
.	.	(8gg/	8r	.
4B-\ 4d 4g	.	8ff#X/	4r	.
.	.	8gg/J)	.	.
*	*	*v	*v	*
=38	=38	=38	=38
*^	*	*	*
4C/	4C/yy	.	8r	p
!	!	!	!LO:TX:b:i:t=legg.	!
.	.	.	(8gg\L 8eee-	.
(4e-/	2c\ 2e-	.	8aa\ 8fff	.
.	.	.	8gg\) 8eee-	.
4a/)	.	.	(8ee-'\ 8ccc	.
.	.	.	8cc'\J) 8aa	.
*v	*v	*	*	*
!!LO:LB:g=original
=39	=39	=39	=39
4D\	.	4b-\ 4gg	.
2B-\ 2d 2g	.	8r	.
.	.	(8dd\L 8bb-	.
.	.	8b-\ 8gg	.
.	.	8g\J 8ee-	.
=40	=40	=40	=40
*^	*	*	*
4DD/	4DD/yy	.	4f#X/) 4dd	.
(4A/	2D\ 2A	.	8r	.
.	.	.	(8g/L 8ee-	.
4c/)	.	.	8en/ 8a	.
.	.	.	8f#/J 8cc	.
*v	*v	*	*	*
=41	=41	=41	=41
4GG/	.	8g/L) 8b-	.
.	.	(8c#X/	>
2D\ 2B-	.	8e-/	.
.	.	8c#/	.
.	.	8e-/	]
.	.	8d/J)	.
=42	=42	=42	=42
*ped	*	*	*
8BBB-/ 8BB-	.	8d/ 8a-X 8dd	f
8r	.	8r	.
*Xped	*	*	*
12C#X/L 12c#X	.	4ryy	.
12d>\ 12dd>	.	.	.
12E-/J 12e-	.	.	.
4ryy	.	12d\L 12dd	.
.	.	12F</ 12f<	.
.	.	12a-X\J 12aa-X	.
=43	=43	=43	=43
*^	*	*	*
4E-/	4EE-/	.	8g\ 8dd 8gg	.
.	.	.	8r	.
(4d/	2E-\ 2G	.	12r	.
.	.	.	(12bn\L	.
.	.	.	12dd\J	.
4c/)	.	.	12cc\L	.
.	.	.	12gg\	.
.	.	.	12ccc\J)	.
*v	*v	*	*	*
!!LO:LB:g=original
=44	=44	=44	=44
*ped	*	*	*
8BBBn/ 8BBn	.	8dd\ 8aa-X 8ddd	.
8r	.	8r	.
*Xped	*	*	*
12En/L 12en	.	4ryy	.
12f>\ 12ff>	.	.	.
12G/J 12g	.	.	.
4ryy	.	12f\L 12ff	.
.	.	12A-X</ 12a-X<	.
.	.	12dd\J 12ddd	.
=45	=45	=45	=45
4CC/ 4C	.	4.ff\ 4.gg 4.fff	.
4G\ 4e-	.	.	.
.	.	(8ee-'\L	>
4G\ 4An 4e-	.	8dd'\	.
.	.	8cc'\J)	]
=46	=46	=46	=46
*ped	*	*	*
8DD/	.	8b-\L 8dd 8gg 8bb-	.
*	*	*8va	*
8r	.	8ggg\ 8dddd	p
4r	.	8ddd\ 8bbb-	.
.	.	8bb-\ 8ggg	.
8r	.	8gg\ 8ddd	.
*clefG2	*	*	*
*Xped	*	*X8va	*
8ryy	.	(8dd</J 8bb-<	.
=47	=47	=47	=47
*ped	*	*	*
2.ryy	.	8b-</L) 8gg<	.
.	.	(8ee-\ 8bb-	.
.	.	8b-\) 8gg	.
.	.	(8g</ 8ee-<	.
.	.	8c#X</) 8b-<	.
*Xped	*	*	*
.	.	(8g\J 8ee-	.
=48	=48	=48	=48
*ped	*	*	*
2.ryy	.	8b-\L) 8dd	.
.	.	(8B-</ 8g<	.
.	.	8d</) 8b-<	.
!	!	!LO:TX:b:i:t=cresc.	!
.	.	(8g\ 8dd	.
.	.	8d\ 8b-	.
*Xped	*	*	*
.	.	8B-\J 8g	.
*clefF4	*	*	*
!!LO:LB:g=original
=49	=49	=49	=49
2ryy	.	8G\L) 8e-	.
.	.	8E-</ 8A<	.
.	.	8C#X</ 8G<	.
.	.	(8B-\ 8f	.
((4CC#X/ 4C	.	8G\ 8e-	.
.	.	8B-\J 8g	.
=50	=50	=50	=50
8DD/)) 8D	.	8B-/) 8d	.
8r	.	8r	.
*ped	*	*	*
(12D/L	.	4ryy	f
12F#X/	.	.	.
12G/	.	.	.
12A>\	.	4ryy	.
12B->\	.	.	.
12c>\J	.	.	.
*clefG2	*	*	*
=51	=51	=51	=51
12g>\L)	.	4ryy	.
(12a/	<	.	<
12b-/J	.	.	.
12dd/L	.	4r	.
12gg/)	.	.	.
N(>12aa>\J	.	.	.
4ryy	.	12bb-\L	.
.	.	12ddd\	.
.	[[	12ggg\JN)	.
=52	=52	=52	=52
*Xped	*	*	*
8bbb-\	.	4r	.
8r	.	.	.
*ped	*	*8va	*
4ryy	.	(12ggg\L 12dddd	p
.	.	12bbb-\	.
.	.	12ddd\J)	.
12gg\L	.	4r	.
12bb-\	.	.	.
*Xped	*	*	*
12dd\J	.	.	.
*	*	*X8va	*
=53	=53	=53	=53
*ped	*	*	*
4ryy	.	12gg\L 12eee-	.
.	.	12bb-\	.
.	.	12ee-\J	.
12g/L	.	4ryy	.
12b-/	.	.	.
12d-X/J	.	.	.
4ryy	.	12g/L 12ee-	.
.	.	12b-/	.
*Xped	*	*	*
.	.	12e-/J	.
*clefF4	*	*	*
!!LO:LB:g=original
=54	=54	=54	=54
*ped	*	*	*
4ryy	.	12f/L 12ddn	.
.	.	12b-/	.
.	.	12d/J	.
12G\L	.	4ryy	.
12B-\	.	.	.
12D\J	.	.	.
4ryy	.	12gg\L 12ddd	.
.	.	12bb-\	.
*Xped	*	*	*
.	.	12dd\J	.
*clefG2	*	*	*
=55	=55	=55	=55
!LO:TX:b:i:t=con Ped.	!	!	!
4ryy	.	12gg\L 12eeen	.
.	.	12bb-\	.
.	.	12een\J	.
12g/L	.	4ryy	.
12b-/	.	.	.
12c/J	.	.	.
4ryy	.	12g/L 12ee	.
.	.	12b-/	.
.	.	12en/J	.
*clefF4	*	*	*
=56	=56	=56	=56
4ryy	.	12a\L 12ff	p
.	.	12cc\	.
.	.	12f\J	.
12C/L	.	4ryy	.
12A/	.	.	.
12FF/J	.	.	.
4ryy	.	(12gg-X\L 12eee-X	.
.	.	12aa\	.
.	.	12ee-X\J	.
=57	=57	=57	=57
4ryy	.	12een\L) 12ddd-X	.
.	.	12bb-\	.
.	.	12dd-X\J	.
12d-X\L	.	4ryy	.
12g\	.	.	.
12F\J	.	.	.
4ryy	.	(12dd-\L 12bb-	.
.	.	12ee\	.
.	.	12b-\J	.
!!LO:LB:g=original
=58	=58	=58	=58
4ryy	.	12cc\L) 12aa	.
.	.	12ff\	.
.	.	12a\J	.
12C/L	.	4ryy	.
12A/	.	.	.
12FF/J	.	.	.
4ryy	.	(12g-X\L 12ee-	.
.	.	12a\	.
.	.	12e-\J	.
=59	=59	=59	=59
4ryy	.	12en\L) 12dd-X	.
.	.	12b-\	.
.	.	12d-X\J	.
12D-X/L	.	4ryy	.
12G/	.	.	.
12FF/J	.	.	.
4ryy	.	(12d-/L 12b-	.
.	.	12e/	.
.	.	12B-/J	.
=60	=60	=60	=60
4ryy	.	12c/L) 12a	.
.	.	12f/	.
.	.	12A/J	.
(12C/L	.	4ryy	.
12F/	.	.	.
12C/J	.	.	.
12FF/L)	.	4ryy	.
(12FF/	.	.	.
12CC/J)	.	.	.
=61	=61	=61	=61
8FFF/	.	6r	.
8r	.	.	.
.	.	(>12En/	.
4r	.	12E/L	.
.	.	12G#X/	<
.	.	12A/J	.
4r	.	12Bn/L	.
.	.	12c/	.
.	.	12d/J	[[
!!LO:PB:g=original
=62	=62	=62	=62
2.r	.	12e-/L)	>
.	.	(12G#X/	.
.	.	12A/J	.
.	.	12Bn/L	.
.	.	12c/	.
.	.	12d/J	]
.	.	12e-/L	.
.	.	12B/	.
.	.	12c/J	.
=63	=63	=63	=63
2.r	.	12en/L)	.
.	.	(12Bn/	.
.	.	12c/J	.
.	.	12f/L)	.
.	.	(12B/	.
.	.	12c/J	.
.	.	12f#X/L)	.
.	.	(12B/	.
.	.	12c/J	.
=64	=64	=64	=64
!	!	!LO:TX:b:i:t=poco riten.	!
2.r	.	12g/L)	.
.	.	(12Bn/	.
.	.	12c/J	.
.	.	8c#X/L)	.
.	.	(8d'/	.
.	.	8e-X'/	.
.	.	8en'/J)	.
=65	=65	=65	=65
!	!	!LO:TX:a:i:t=a tempo	!
.	.	(<8qf/	.
4BBB-/	.	2.f\) 2.dd 2.ff	p
4F\ 4B- 4d	.	.	.
4F\ 4B- 4d	.	.	.
=66	=66	=66	=66
.	.	(8qd/	.
4DD/	.	2.d/) 2.b- 2.dd	.
4D\ 4F#X 4B-	.	.	.
4D\ 4F# 4B-	.	.	.
!!LO:LB:g=original
=67	=67	=67	=67
4EE-/	.	8r	.
.	.	(8f#X\L	.
4E-\ 4B- 4c	.	8g\	.
.	.	8dd\	<
4E-\ 4B- 4c	.	8cc\	.
.	.	8f#\J	.
=68	=68	=68	=68
4EE-/	.	8g\L	.
.	.	8dd\	.
4E-\ 4B- 4c	.	8cc\	[[
.	.	8aa\	>
4E-\ 4B- 4c	.	8gg\	.
.	.	8cc\J)	]]
=69	=69	=69	=69
.	.	(<8qa/	.
4FF/	.	2.a\) 2.ee- 2.aa	p
4F\ 4A 4e-	.	.	.
4F\ 4A 4e-	.	.	.
=70	=70	=70	=70
.	.	(<8qg/	.
4GG/	.	2.g\) 2.ee- 2.gg	.
4G\ 4B- 4e-	.	.	.
4G\ 4B- 4e-	.	.	.
=71	=71	=71	=71
4AA/	.	8r	.
.	.	(8bn\L	<
4F\ 4c 4e-	.	8cc\	.
.	.	8gg\	.
4F\ 4c 4e-	.	8ff\	[[
.	.	8cc#X\J	.
=72	=72	=72	=72
4BB-/	.	8dd\L	>
.	.	8gg\	.
4F\ 4B- 4d	.	8ff\	.
.	.	8ddd\	.
4F\ 4B- 4d	.	8bb-\	.
.	.	8ff\J)	]
=73	=73	=73	=73
*	*	*^	*
.	.	.	(<8qff/	.
*^	*	*	*	*
!	!	!	!LO:TX:b:i:t=espr.	!	!
4GG/	4GG/yy	.	2.bb-/	(4.ff\)	.
(4B-/	2G\ 2B-	.	.	.	.
.	.	.	.	8ee-\L	.
4e-/)	.	.	.	8dd\	.
.	.	.	.	8ee-\J)	.
!!LO:LB:g=original
=74	=74	=74	=74	=74	=74
.	.	.	.	(<[>8qbb-/	.
(4f/	2.F\	.	2.bb-/]	(<2dd\)	.
4B-/	.	.	.	.	.
4d/)	.	.	.	8cc\L	.
.	.	.	.	8b-\J	.
=75	=75	=75	=75	=75	=75
.	.	.	.	([8qa/	.
4E-/	2.E-\	.	2dd/)	(4.a\])	.
(4G-X/	.	.	.	.	.
.	.	.	.	8f#X\L	.
4c/)	.	.	[4cc/	8a\	.
.	.	.	.	8g\J	.
=76	=76	=76	=76	=76	=76
(4d/	2.D\	.	8cc/]	8fn\L)	.
.	.	.	8ryy	(8a\	<
4F/	.	.	2ryy	8b-\	.
.	.	.	.	8dd\	.
4B-/)	.	.	.	8ff\	.
.	.	.	.	8bb-\J)	[
=77	=77	=77	=77	=77	=77
.	.	.	.	(<8qdd/	.
4GG/	4GG/	.	[2ddd/	(2dd\) 2bb-	.
(4B-/	2G\ 2B-	.	.	.	.
4en/)	.	.	8ddd/]	8aa\L	.
.	.	.	8r	8gg\J)	.
*v	*v	*	*	*	*
=78	=78	=78	=78	=78
4AA/	.	2.aa/	(8ff\L	.
.	.	.	8een\	.
4A\ 4d 4f	.	.	8dd\	.
.	.	.	8cc#X\	.
4A\ 4d 4f	.	.	8dd\	.
.	.	.	8ee\J)	.
=79	=79	=79	=79	=79
*^	*	*	*	*
4AA/	4AA/yy	.	(2.aa/	(2ff\	.
(4c#X/	2A\ 2c#	.	.	.	.
4g/)	.	.	.	8een\L	.
.	.	.	.	8a\J)	.
*v	*v	*	*	*	*
!!LO:LB:g=original
=80	=80	=80	=80	=80
4DD/	.	8dd/)	(8g#X\L	.
.	.	8r	8b-\	.
[2F\ [2A [2d	.	4r	8a\	.
.	.	.	8en\	.
.	.	4r	8gn\	.
.	.	.	8f\J	.
*	*	*v	*v	*
=81	=81	=81	=81
8F\] 8A] 8d]	.	8en\L	.
8r	.	8g\	.
4r	.	8f\)	.
.	.	(8een\	>
4r	.	8gg\	.
.	.	8ff\J)	]
=82	=82	=82	=82
8BBB-/ 8BB-	.	2.ff:\ 2.bb-: 2.ddd: 2.fff:	p
!	!	!LO:TX:b:i:t=armonioso	!
8r	.	.	.
!LO:TX:b:i:t=con Ped.	!	!	!
(8F\L	.	.	.
8En\	<	.	.
8G\	.	.	.
8F\J	.	.	.
=83	=83	=83	=83
8B-\L	.	2.dd:\ 2.ff#X: 2.bb-: 2.ddd:	.
8A\	.	.	.
8c\	.	.	.
8B-\	.	.	.
8d\	.	.	.
8B-\J	[	.	.
=84	=84	=84	=84
!LO:TX:b:i:t=con. Ped.	!	!	!
4E-\)	.	8r	.
.	.	(8f#X\L	.
4r	.	8g\	.
.	.	8dd\	.
*clefG2	*	*	*
!	!	!LO:TX:b:i:t=legg.	!
4b-'\	.	8cc\	.
.	.	8aa\J	.
=85	=85	=85	=85
4e-'/	.	8gg\L	.
.	.	8ddd\	.
4bb-'\	.	8ccc\	.
.	.	8aaa\	.
4ee-'\	.	8ggg\	.
.	.	8ccc\J)	.
*clefF4	*	*	*
!!LO:LB:g=original
=86	=86	=86	=86
*	*	*8va	*
8FF/	.	2.aa:\ 2.ccc: 2.eee-: 2.aaa:	p
8r	.	.	.
(8F\L	.	.	.
8En\	.	.	.
8G\	<	.	.
8F\J	.	.	.
=87	=87	=87	=87
8d\L	.	2.gg:\ 2.bb-: 2.eee-: 2.ggg:	.
8c\	.	.	.
8f\	.	.	.
8e-\	.	.	.
8a\	.	.	.
8g\J	[	.	.
*	*	*X8va	*
=88	=88	=88	=88
8f\)	.	8r	.
8r	.	(8en\L	.
!	!	!LO:TX:b:i:t=legg.	!
4r	.	8f\	.
.	.	8dd\	.
*clefG2	*	*	*
4ee-'\	.	8cc\	.
.	.	8gg\J	.
=89	=89	=89	=89
4dd'\	.	8ff\L	.
.	.	8ddd\	.
4f'/	.	8bb-\	.
.	.	8ggg\	.
4B-'/	.	8fff\	.
.	.	8bb-\J)	.
*clefF4	*	*	*
=90	=90	=90	=90
*^	*	*	*
4C-X/	4C-/yy	.	8r	.
.	.	.	(4cc\ 4ccc	f
(4a-X/	2c-X\ 2d-X	.	.	.
.	.	.	8dd-X\L) 8ddd-X	.
4f/)	.	.	8ee-\ 8eee-	.
.	.	.	8ff\J 8fff	.
=91	=91	=91	=91	=91
4BB-/	4BB-/yy	.	4.aa-X\ 4.aaa-X	.
(4d-X/	2B-\ 2d-	.	.	.
.	.	.	8gg-X\L 8ggg-X	.
4f-X/)	.	.	8ff\ 8fff	.
.	.	.	8ff-X\J 8fff-X	.
!!LO:LB:g=original
=92	=92	=92	=92	=92
4C-X/	4C-/yy	.	4.ee-\ 4.eee-	.
(4f/	2A-X\ 2c-X	.	.	.
.	.	.	8ee--\L 8eee--	.
4d-X/)	.	.	8dd-X\ 8ddd-X	.
.	.	.	8ccn\J 8cccn	.
=93	=93	=93	=93	=93
4GG-X/	4GG-/yy	.	4.cc-X\ 4.ccc-X	.
(4B-/	2G-X\ 2B-	.	.	.
.	.	.	8b-\L 8bb-	.
4d-X/)	.	.	8a-X\ 8aa-X	.
.	.	.	8g-X\J 8gg-X	.
*v	*v	*	*	*
=94	=94	=94	=94
4EEn/	.	8f\L 8ff	p
.	.	8g-X\ 8gg-X	.
2En\ 2B- 2d-X	.	(8a\ 8aa	.
.	.	8gg-\)	.
.	.	8b-\ 8bb-	.
.	.	8g-\J 8gg-	.
=95	=95	=95	=95
4FF/	.	4.f\ 4.ff	.
4F\ 4B- 4dn	.	.	.
.	.	(8b-\L	<
4F\ 4B- 4d	.	8cc\	.
.	.	8dd\J	.
=96	=96	=96	=96
4FF/	.	8ee-\L)	[
.	.	8aa\ 8aaa	.
4F\ 4A 4e-	.	(8gg\ 8ggg	>
.	.	8eee-\)	.
4F\ 4A 4e-	.	8g\ 8gg	.
.	.	8a\J 8aa	.
=97	=97	=97	=97
4B-\ 4d	.	4b-\ 4bb-	]
4BBB-/	.	4r	.
4r	.	4B-/	.
!!LO:PB:g=original
=98||	=98||	=98||	=98||
*k[b-e-a-d-g-c-]	*	*k[b-e-a-d-g-c-]	*
!	!	!LO:TX:a:i:t=espress. poco meno mosso	!
*ped	*	*	*
4AA-/	.	(2.c-/	.
4A-\ 4e-	.	.	.
[4A-\ [4e-	.	.	.
=99	=99	=99	=99
4A-\] 4e-]	.	2.g-/	.
4E-\ 4G- 4c-	.	.	.
*Xped	*	*	*
4E-\ 4G- 4c-	.	.	.
=100	=100	=100	=100
4DD-/	.	2f/)	.
4D-\ 4F 4c-	.	.	.
4D-\ 4F 4c-	.	[4e-/	.
=101	=101	=101	=101
4DD-/	.	4e-/]	.
4D-\ 4F 4c-	.	4..d-/	.
4D-\ 4F 4c-	.	.	.
.	.	16A-/	.
=102	=102	=102	=102
4GG-/	.	2c-/	.
4D-\ 4G-	.	.	.
4D-\ 4G-	.	[4B-^>/	.
=103	=103	=103	=103
4GG-/	.	4B-/]	.
(4D-'\ 4A-	.	(4c-'/	.
4D-'\) 4An	.	4cn'/	.
=104	=104	=104	=104
4GG-/	.	4e-'/)	.
4D-\ 4B-	.	(4d-'/	.
4D-\ 4B-	.	4e-'/	.
!!LO:LB:g=original
=105	=105	=105	=105
4BB-/	.	4f'/	.
4G-\ 4d-	.	4a-'/	.
4G-\ 4d-	.	4g-'/)	.
=106	=106	=106	=106
*^	*	*	*
!	!	!	!LO:TX:b:i:t=con espressione	!
4AAn/	2.AA\	.	2f/	.
4F/	.	.	.	.
4F/	.	.	(8cn/L	.
.	.	.	8e-/J	.
*v	*v	*	*	*
=107	=107	=107	=107
4BB-/	.	2d-/)	.
4F\ 4B-	.	.	.
4F\ 4B-	.	4dd-\	<
=108	=108	=108	=108
*	*	*^	*
.	.	.	((8qcc-X/	.
4GGn/	.	[2.ee-/	2cc-\))	.
4E-\ 4d-	.	.	.	.
4E-\ 4d-	.	.	[4b-\	[
=109	=109	=109	=109	=109
4AA-/	.	8ee-/]	8b-\L]	.
.	.	8ryy	(<8a-\	.
4E-\ 4c-	.	4r	8gn\	.
.	.	.	8b-\	.
4E-\ 4c-	.	4r	8a-\	.
.	.	.	8e-\J	.
*	*	*v	*v	*
=110	=110	=110	=110
*^	*	*	*
4C-/	(2.C-\	.	2d-/)	.
[2A-/	.	.	.	.
.	.	.	(8e-/L	.
.	.	.	8f/J	.
=111	=111	=111	=111	=111
4A-/]	2.GG-\)	.	2a-/)	.
(4D-/	.	.	.	.
4G-/)	.	.	(>8g-/L	.
.	.	.	8d-/J	.
!!LO:LB:g=original
=112	=112	=112	=112	=112
.	.	.	(8qcn/	.
4AAn/	(2.AA\	.	2f/))	.
[2F/	.	.	.	.
.	.	.	[4e-/	.
=113	=113	=113	=113	=113
4F/]	2.GG-\)	.	(8e-/L]	.
.	.	.	8d-/	.
8F/	.	.	8cn/	.
8r	.	.	8d-/	.
4r	.	.	8F/	.
.	.	.	8B-/J	.
*v	*v	*	*	*
=114	=114	=114	=114
4AAA-/	.	2.c-X/)	.
*ped	*	*	*
(8G-\L	.	.	<
8E-\J	.	.	.
[4e-\)	.	.	.
=115	=115	=115	=115
4e-\]	.	[2.g-\ [2.cc- [2.gg-	[[
(8c-\L	.	.	.
8A-\J	.	.	.
*Xped	*	*	*
4e-\)	.	.	.
=116	=116	=116	=116
4DD-/	.	4..g-\] 4..cc-] 4..gg-]	p
*ped	*	*	*
(8D-\L	.	.	.
8F\	.	.	.
.	.	(16aa-\	.
8c-\	.	[4ee-\ 4aa- 4eee-)	.
8f\J	.	.	.
*clefG2	*	*	*
=117	=117	=117	=117
4cc-\)	.	8.ee-\L] 8.aa- 8.eee-	.
.	.	(16aa-\Jk	.
(4d-'/	.	4..dd-\) 4..aa- 4..ddd-	.
*Xped	*	*	*
4ee-'\)	.	.	.
.	.	[16ff\	.
*clefF4	*	*	*
=118	=118	=118	=118
4GG-/	.	4..cc-\ 4..ff] 4..ccc-	.
(8d-\L	.	.	.
8B-\J	.	.	.
.	.	16b-\ 16gg- 16bb-	.
4e-\)	.	[4b-\ [4gg- [4bb-	.
!!LO:LB:g=original
=119	=119	=119	=119
4GG-/	.	4b-\] 4gg-] 4bb-]	.
(4d-'\ 4a-	.	(4cc-'\ 4ccc-	<
4d-\) 4an	.	4ccn'\) 4cccn	[[
=120	=120	=120	=120
*^	*	*	*
4BB-/	4BB-/yy	.	4ee-\ 4eee-	.
!	!	!	!LO:TX:b:i:t=cresc.	!
*ped	*	*	*	*
8b-/L	[2B-\	.	(4dd-\ 4ddd-	.
8g-/	.	.	.	.
8f/	.	.	4ee-\ 4eee-	.
8e-/J	.	.	.	.
=121	=121	=121	=121	=121
*Xped	*	*	*	*
4d-/	4B-\]	.	4ff\ 4fff	.
(8B-\L	4ryy	.	4aa-\ 4aaa-	.
8G-\J	.	.	.	.
4BB-/)	4ryy	.	4gg-\) 4ggg-	.
*v	*v	*	*	*
=122	=122	=122	=122
(8qAAAn/	.	.	.
*ped	*	*	*
(8AAn\L)	.	[2.ff#X\ [2.aan [2.fff#X	f
8Dn\	.	.	.
8F#X\	.	.	.
8An\	.	.	.
8dn\	.	.	.
8f#X\J)	.	.	.
=123	=123	=123	=123
*^	*	*	*
*Xped	*	*	*	*
4a-/	2an\	.	4ff#\] 4aa] 4fff#]	.
(4An'\ 4dn 4f#X	.	.	(4een\ 4eeen	.
4A'\) 4d 4f#	4ryy	.	4ddn\ 4dddn	.
*v	*v	*	*	*
=124	=124	=124	=124
*ped	*	*	*
(8GGn\L	.	4cc#X\ 4ccc#X	.
8C#X\	.	.	.
8En\	.	4ddn\ 4dddn	.
8An\	.	.	.
8c#X\	.	4een\ 4eeen	.
8A\J	.	.	.
*Xped	*	*	*
!!LO:LB:g=original
=125	=125	=125	=125
*^	*	*	*
4e-/)	2.e-\	.	4an\) 4aan	>
.	.	.	(8qcc#X/ 8qccc#X	.
4Gn'\ [4c#X	.	.	(4bn\) 4bbn	.
4G'\ 4c#]	.	.	4a\) 4aa	]]]
*v	*v	*	*	*
=126	=126	=126	=126
*ped	*	*	*
(28%3AAA-X/L	.	[2.ffn\ [2.aa-X [2.fffn	p
28%3AA-X/	.	.	.
28%3D-X/	.	.	.
28%3Fn/	.	.	.
28%3A-X/	.	.	.
28%3d-X/	.	.	.
28%3fn/J)	.	.	.
=127	=127	=127	=127
*^	*	*	*
[2a-/	4r	.	8ff\L] 8aa-] 8fff]	.
.	.	.	(8ee-X\	.
.	4F\ 4A- 4d-	.	8dd-\	.
.	.	.	8a-\	.
8a-/]	4r	.	8ccn\	.
8r	.	.	8b-\J	.
*v	*v	*	*	*
=128	=128	=128	=128
*	*	*^	*
4r	.	2a-/)	4r	.
4AAA-/	.	.	8r	.
.	.	.	(8cn\L	.
!	!	!	!	!LO:HP:a
(4AA-\ 4G-	.	(4f/	8B-\	>
.	.	.	8c\J	.
*	*	*v	*v	*
=129	=129	=129	=129
4D-\) 4F	.	4d-/))	.
4DD-/	.	4r	]
4r	.	(4c#X/	.
!!LO:LB:g=original
=130||	=130||	=130||	=130||
*k[f#c#g#]	*	*k[f#c#g#]	*
*^	*	*	*
!	!	!	!LO:TX:a:i:t=poco animato	!
(4BB/	2EE\	.	4.d/)	p
4G#/)	.	.	.	.
.	.	.	(8B/L	.
4F#/	4r	.	8c#/	.
.	.	.	8d/J	.
*v	*v	*	*	*
=131	=131	=131	=131
.	.	8qg#/	.
4E\	.	4.f#/)	.
4B\	.	.	.
.	.	(8e/	.
4E\	.	4e/) 4g# 4dd	.
=132	=132	=132	=132
.	.	((8qc#/	.
(4AA/	.	4.g#/)) 4.cc#	.
4c#\)	.	.	.
.	.	(8f#/L	<
(4E\	.	8c#/	.
.	.	8g#/J	.
=133	=133	=133	=133
4c#\	.	8f#\L	.
.	.	8e\	.
4E\	.	8cc#\	.
.	.	8ee\	.
4AA/)	.	8cc#\	.
.	.	8ccc#\J	[
=134	=134	=134	=134
*^	*	*	*
4BB/	4BBB/	.	4dd\) 4aa 4ddd	sfz
(4F#/	2GG#\	.	8r	.
.	.	.	(8d/L	p
4c#/	.	.	8f#/	.
.	.	.	8a/J	.
*v	*v	*	*	*
=135	=135	=135	=135
4E\) 4B	.	8g#/L)	.
.	.	(8d/	.
4r	.	8g#/	<
.	.	8dd/	.
(4BBB/ 4BB	.	8g#/	.
.	.	8gg#/J	[[
!!LO:PB:g=original
=136	=136	=136	=136
*^	*	*	*
4CC#/)	4C#/	.	4b\) 4ee 4bb	.
(4G#/	2C#\	.	8r	.
.	.	.	(8e/L	.
4B/	.	.	8g#/	.
.	.	.	8b/J	.
*v	*v	*	*	*
=137	=137	=137	=137
4F#\) 4c#	.	(8a\L)	.
.	.	8e\	.
4r	.	8a\	.
.	.	8ee\	.
(4FFn/ 4Fn	.	8a\	.
.	.	8aa\J	.
=138	=138	=138	=138
*^	*	*	*
4DD/)	4D/	.	4ffn\) 4aa 4fffn	.
(4A/	2D\	.	8r	p
.	.	.	(8a\L	.
4e/	.	.	8ff\	.
.	.	.	8aa\J	.
*v	*v	*	*	*
=139	=139	=139	=139
4d\)	.	4b\) 4ffn 4bb	.
(4Gn\	<	8r	.
.	.	(8b\L	.
4gn\	.	8ff\	.
.	.	8bb\J	.
=140	=140	=140	=140
4cn\) 4a	[	4dd\) 4ffn 4ddd	.
!	!	!LO:TX:b:i:t=dolce	!
(4c\	.	8r	.
.	.	(8cccn\L	.
4fn\	.	8aa\	.
.	.	8ddd\J	.
=141	=141	=141	=141
4a\)	.	8cccn\L	.
.	.	8aa\J	.
4r	.	8ffn\L	.
.	.	8ccn\	.
4r	.	8a\	.
.	.	8dd\J	.
!!LO:LB:g=original
=142	=142	=142	=142
4CCn/ 4Cn	.	4e/) 4b-X 4ee	.
(4C/	.	8r	.
.	.	(8dd\L	.
4Gn\	.	8b-\	.
.	.	8ee\J	.
=143	=143	=143	=143
4B-X\)	.	8dd\L)	.
.	.	(8b-X\	.
4r	.	8gn\	.
.	.	8d\	.
4r	.	8e\	.
.	.	8dd\J	.
=144	=144	=144	=144
!	!	!LO:TX:b:i:t=poco riten.	!
4r	.	4A/) 4fn 4a	.
(4FFn/	.	8r	.
.	.	(8e/L	.
4D\	.	8d/	.
.	.	8a/J	.
=145	=145	=145	=145
4A\)	.	4c#X/)	.
(4FFn/	.	8r	.
.	.	(8B/L	.
4Fn\)	.	8A/	.
.	.	8c#/J	.
=146	=146	=146	=146
*^	*	*	*
!	!	!	!LO:TX:a:i:t=a tempo	!
4BBBn/	4BBB/yy	.	4F#/) 4d 4f#X	.
(4F#X/	2BB\	.	8r	.
.	.	.	8d/L	.
4c#/	.	.	8f#/	.
.	.	.	8a/J	.
*v	*v	*	*	*
=147	=147	=147	=147
.	.	(<8qg#/	.
4B\	.	4.f#/)	.
4E\	.	.	.
.	.	(8e/	.
4B\	.	4g#/) 4dd	.
=148	=148	=148	=148
4AA/)	.	4c#/ 4g# 4cc#	.
(4B\	.	8r	.
.	.	(8f#/L	<
4E\	.	8c#/	.
.	.	8g#/J	.
!!LO:LB:g=original
=149	=149	=149	=149
4c#\	.	8f#\L	.
.	.	8e\	.
4E\	.	8cc#\	.
.	.	8ee\	.
4AA/)	.	8cc#\	[
.	.	8ccc#\J	.
=150	=150	=150	=150
*^	*	*	*
4GG#/	4GG#/yy	.	4ee\) 4aa 4eee	.
(4A/	[2F#\ [2A	.	8r	.
.	.	.	(8a\L	.
4e/	.	.	8cc#\	.
.	.	.	8ee\J	.
*v	*v	*	*	*
=151	=151	=151	=151
4F#\]) 4A] 4d	.	8dd\L)	.
.	.	(8a\	.
4r	.	8dd\	.
.	.	8aa\	.
(4FF#/ 4F#	.	8aa\	.
.	.	8ddd\J 8aaa	.
=152	=152	=152	=152
*^	*	*	*
4E#X/)	4EE#X/	.	4gg#\) 4ddd 4ggg#	.
(4G#/	(2E#\ 2G#	.	8r	.
!	!	!	!LO:TX:b:i:t=cresc.	!
.	.	.	(8g#\L	.
4d/	.	.	8b\	.
.	.	.	8dd\J	.
=153	=153	=153	=153	=153
4c#/)	4En\) 4Gn	.	8cc#\L)	.
.	.	.	(8gn\	.
4r	4ryy	.	8cc#\	.
.	.	.	8ggn\	.
(4E/	4EE/	.	8gg\	.
.	.	.	8ccc#\J 8gggn	.
=154	=154	=154	=154	=154
4D/)	4DD/	.	4ff#\) 4ccc# 4fff#	.
(4F#/	[2D\ [2F#	.	8r	.
.	.	.	(8f#\L	.
4c#/	.	.	8a#X\	.
.	.	.	8cc#\J	.
!!LO:LB:g=original
=155	=155	=155	=155	=155
4B/)	4D\] 4F#]	.	8b\L)	.
.	.	.	(8f#\	.
4r	4ryy	.	8b\	<
.	.	.	8ff#\	.
(4D/	(4DD/	.	8ff#\	.
.	.	.	8bb\J 8fff#	.
=156	=156	=156	=156	=156
4C#/)	4CC#/)	.	4ee#X\) 4bb 4eee#X	[
*clefG2	*	*	*	*
(4c#/	[2c#\	.	8r	.
.	.	.	(8ee#\L	.
4b/	.	.	8bb\	.
.	.	.	8eee#\J	.
=157	=157	=157	=157	=157
4a/)	4c#\]	.	4gg#\) 4ddd 4ggg#	.
((4B/	2B#X\	.	8r	.
.	.	.	(8een\L	.
4a/	.	.	8dd\	.
.	.	.	8ff#\J 8ddd	.
*v	*v	*	*	*
=158	=158	=158	=158
4c#/)) 4g#	.	4cc#\) 4ee#X 4ccc#	.
*clefF4	*	*	*
(4C#/	.	8r	.
.	.	(8cc#\L	p
4e#X\	.	8g#\	.
.	.	8gg#\J	.
=159	=159	=159	=159
4f#\)	.	4dd\) 4ee 4bb	.
(4C#/	.	8r	.
.	.	(8g#\L	.
4f#\	.	8a\	.
.	.	8b#X\J 8aa	.
=160	=160	=160	=160
*^	*	*	*
4e#X\)	4ryy	.	4g#\) 4cc# 4gg#	.
!	!	!	!LO:TX:b:i:t=dimin.	!
(4C#/	[2C#\	.	8r	.
.	.	.	(8g#/L	.
4B/	.	.	8c#/	.
.	.	.	8cc#/J	.
=161	=161	=161	=161	=161
4A/)	4C#\]	.	4en/) 4f# 4een	.
(4BB#X/	(2BB#\	.	8r	.
.	.	.	(8e/L	.
4A/	.	.	8d/	.
.	.	.	8f#/J 8dd	.
*v	*v	*	*	*
!!LO:LB:g=original
=162	=162	=162	=162
4C#\)) 4G#	.	4c#/) 4e#X 4cc#	.
*^	*	*	*
(4CC#/	4ryy	.	8r	.
.	.	.	(8c#/L	.
4F#\	4ryy	.	8A/	.
.	.	.	8d#X/J	.
*v	*v	*	*	*
=163	=163	=163	=163
4E#X\)	.	4G#/) 4c# 4g#	.
(4C#/	.	8r	.
.	.	(8cc#\L	.
4f#\	.	8a\	.
.	.	8dd#X\J	.
=164	=164	=164	=164
!LO:TX:t=P:problem=mixed beam	!	!	!
8e#X\L)	.	4g#\) 4cc# 4gg#	.
*ped	*	*	*
(16CC#/L	.	.	.
16GG#/JJ	.	.	.
*	*	*clefF4	*
16C#/LL	.	4ryy	.
16E#X/	.	.	.
!	!	!LO:TX:b:i:t=veloce e cresc.	!
16C#>\	.	.	.
16G#>\JJ	.	.	.
4ryy	.	16c#\LL	.
.	.	16G#\	.
.	.	16c#\	.
.	.	16g#\JJ	.
*	*	*clefG2	*
=165	=165	=165	=165
8r	.	8cc#\)	.
(16C#\LL	.	8ryy	.
16G#\JJ	.	.	.
4ryy	.	16c#</LL	.
.	.	16e#X</	.
.	.	16c#/	.
.	.	16g#/JJ	.
4ryy	.	16cc#\LL	.
.	.	16g#\	.
.	.	16cc#\	.
.	.	16gg#\JJ	.
*clefG2	*	*	*
!!LO:LB:g=original
=166	=166	=166	=166
8r	.	8ccc#\)	.
N(>16c#/LL	.	4ryy	.
16g#/JJ	.	.	.
16cc#/LL	.	.	.
16ee#X/	.	.	.
!	!	!LO:TX:b:i:t=dimin.	!
16cc#>\	.	8r	.
16gg#>\JJ	.	.	.
4ryy	.	16ccc#\LL	.
.	.	16gg#\	.
.	.	16ccc#\	.
.	.	16ggg#\JJN)	.
*clefF4	*	*	*
=167	=167	=167	=167
*	*	*8va	*
2.r	.	16cccc#\LL	.
.	.	16ccc#\	.
.	.	16ggg#\	.
.	.	16cccc#\JJ	.
.	.	16ccc#\LL	.
.	.	16ggg#\	.
.	.	16cccc#\	.
.	.	16ccc#\JJ	.
.	.	16ggg#\LL	.
.	.	16cccc#\	.
.	.	16ccc#\	.
.	.	16ggg#\JJ	.
=168	=168	=168	=168
!	!	!LO:TX:b:i:t=riten.	!
2.r	.	16cccc#\LL	.
.	.	16ccc#\	.
.	.	16ggg#\	>
.	.	16cccc#\JJ	.
.	.	16ccc#\LL	.
.	.	16ggg#\	.
.	.	16cccc#\	.
.	.	16ccc#\JJ	.
.	.	16ggg#\LL	.
.	.	16cccc#\	.
.	.	16ccc#\	.
.	.	16ggg#\JJ	.
=169	=169	=169	=169
*Xped	*	*	*
2.r	.	8cccc#\	]]
*	*	*X8va	*
.	.	8r	.
.	.	(4A-X'/	.
.	.	4B-X'/)	.
!!LO:PB:g=original
=170||	=170||	=170||	=170||
*k[b-e-a-d-g-c-]	*	*k[b-e-a-d-g-c-]	*
!	!	!LO:TX:a:i:t=a tempo	!
*ped	*	*	*
4AAA-/	.	2.c-/	p <
(8G-\L	.	.	.
8E-\J	.	.	.
[4c-\)	.	.	.
=171	=171	=171	=171
4c-\]	.	[2.g-\ [2.cc- [2.gg-	[
(8c-\L	.	.	.
8A-\J	.	.	.
*Xped	*	*	*
4e-\)	.	.	.
=172	=172	=172	=172
*ped	*	*	*
4DD-/	.	4g-\] 4cc-] 4gg-]	.
(8D-\L	.	8.r	.
8F\	.	.	.
.	.	(16aa-\	p
8c-\	.	[4ee-\) [4aa- [4eee-	.
8f\J	.	.	.
*clefG2	*	*	*
=173	=173	=173	=173
4cc-\)	.	8.ee-\L] 8.aa-] 8.eee-]	.
.	.	([16aa-\Jk	.
(4d-'/	.	4..dd-\) 4..aa-] 4..ddd-	.
*Xped	*	*	*
4cc-'\)	.	.	.
.	.	([16ff\	.
=174	=174	=174	=174
4e-/	.	4..cc-\) 4..ff] 4..ccc-	.
(8bb-\L	.	.	.
8gg-\J	.	.	.
.	.	16b-\ 16gg- 16bb-	.
4eee-\)	.	[4b-\ [4gg- [4bb-	.
=175	=175	=175	=175
4e-/	.	4b-\] 4gg-] 4bb-]	.
(4bb-'\ 4fff	.	(4cc-'\ 4ccc-	<
4bb-'\) 4fffn	.	4ccn'\ 4cccn	[[
*clefF4	*	*	*
!!LO:LB:g=original
=176	=176	=176	=176
*^	*	*	*
4BB-/	4BB-/yy	.	4ee-\) 4eee-	.
*ped	*	*	*	*
(8b-/L	[2B-\	.	(4dd-\ 4ddd-	.
8g-/	.	.	.	.
8f/	.	.	4ee-\ 4eee-	.
8e-/J	.	.	.	.
=177	=177	=177	=177	=177
*Xped	*	*	*	*
4d-/)	4B-\]	.	4ff\ 4fff	<
4ryy	(8B-\L	.	4aa-\ 4aaa-	.
.	8G-\J	.	.	.
4ryy	4BB-/)	.	4gg-\ 4ggg-	[[
*v	*v	*	*	*
=178	=178	=178	=178
!	!	!LO:TX:b:it=molto espress.	!
4AAn/	.	2ff\) 2fff	.
4F\ 4cn	.	.	.
4F\ 4c	.	(8ccn\L	.
.	.	8ee-\J	.
=179	=179	=179	=179
4BB-/	.	8dd-\L	<
.	.	8f\	.
4F\ 4d-	.	8b-\	.
.	.	8dd-\)	.
4F\ 4d-	.	(8dd-\	.
.	.	8ddd-\J)	[
=180	=180	=180	=180
*	*	*^	*
4GGn/	.	((2ccc-X/	[2.ee-\ 2.eee-	.
4E-\ 4d-	.	.	.	.
4E-\ 4d-	.	[4bb-/)	.	.
=181	=181	=181	=181	=181
4AA-/	.	8bb-/L])	8ee-\] 8eee-	.
.	.	(8ccc-/	8r	>
4E-\ 4A- 4c-	.	8ggn/	4r	.
.	.	8bb-/	.	.
4E-\ 4A- 4c-	.	8aa-/	4r	.
.	.	8ee-/J)	.	]
!!LO:LB:g=original
=182	=182	=182	=182	=182
.	.	(>8qddd-/	.	.
!	!	!	!LO:TX:b:i:t=dolce	!
4C-/	.	[2.ddd-/)	(2dd-\	.
4F\ 4d-	.	.	.	.
4F\ 4d-	.	.	8ee-\L	.
.	.	.	8ff\J	.
=183	=183	=183	=183	=183
4BB-/	.	2ddd-/_	(2aa-\)	.
4G-\ 4d-	.	.	.	.
4G-\ 4d-	.	8ddd-/]	8gg-\L	.
.	.	8ryy	8dd-\J)	.
*	*	*v	*v	*
=184	=184	=184	=184
.	.	(<8qccn/	.
4AAn/	.	(2ff\)	.
4F\ 4cn	.	.	.
4F\ 4c	.	4ee-\	<
=185	=185	=185	=185
4BB-/	.	8dd-\L)	.
.	.	(8f\	.
4F\ 4d-	.	8dd-\	.
.	.	8ff\	.
4F\ 4d-	.	8ff\	.
.	.	8fff\J)	[
=186	=186	=186	=186
(<8qAAAn/	.	.	.
*ped	*	*	*
(8AAn\L)	.	[2.ff#X\ [2.dddn [2.fff#X	f
8Dn\	.	.	.
8F#X\	.	.	.
8An\	.	.	.
8dn\	.	.	.
8f#X\J	.	.	.
=187	=187	=187	=187
*^	*	*	*
[4an/)	4r	.	4ff#\] 4ddd] 4fff#]	.
*Xped	*	*	*	*
8a/]	4An\ 4dn 4f#X	.	(4een\ 4eeen	.
8r	.	.	.	.
4d\ 4f#	4A\	.	4ddn\ 4dddn	.
*v	*v	*	*	*
!!LO:LB:g=original
=188	=188	=188	=188
*ped	*	*	*
(8GGn/L	.	4cc#X\) 4ccc#X	.
8C#X/	.	.	.
8En/	.	(4ddn\ 4dddn	.
8An/	.	.	.
8c#X/	.	4een\ 4eeen	.
8A/J	.	.	.
=189	=189	=189	=189
*^	*	*	*
4en\)	2e/	.	4an\) 4aan	.
*Xped	*	*	*	*
.	.	.	((8qcc#X/ 8qccc#X	.
4Gn\ 4c#X	.	.	4bn\) 4bbn	.
4G\ 4c#	4ryy	.	4a\) 4aa	.
*v	*v	*	*	*
=190	=190	=190	=190
*ped	*	*	*
(8FF#X\L	.	[2.een\ [2.aan [2.eeen	.
8AAn\	.	.	.
8Dn\	.	.	.
8F#X\	.	.	.
8An\	.	.	.
8dn\J	.	.	.
=191	=191	=191	=191
*Xped	*	*	*
[4f#X\)	.	8ee\L] 8aa] 8eee]	.
.	.	(8dddn\	.
8f#\]	.	8gg#X\	.
8r	.	8bbn\	.
4r	.	8aan\	.
.	.	8ee#X\J)	.
=192	=192	=192	=192
*ped	*	*	*
8DDn\L	.	(2.gg#X\	.
8Dn\	.	.	.
8F#X\	.	.	.
!	!	!LO:TX:b:i:t=dimin.	!
8G#X\	.	.	.
8cn\	.	.	.
8f#X\J	.	.	.
*clefG2	*	*	*
*Xped	*	*	*
!!LO:LB:g=original
=193	=193	=193	=193
[4g#X/	.	8gg#X\L)	.
.	.	(8ff#X\	.
8g#/]	.	8ee#X\	.
8r	.	8ff#\	.
4r	.	8f#X\	.
.	.	8g#X\J	.
*clefF4	*	*	*
=194	=194	=194	=194
*	*	*^	*
!	!	!LO:TX:b:i:t=dolce	!	!
4DD-X/	.	4a#X/)	4ryy	.
[2G-X\ [2B-X [2d-X	.	8r	8ryy	.
.	.	4.ddd-X/	(8bb-X\L	.
.	.	.	8gg-X\	.
.	.	.	8ee-X\J	.
=195	=195	=195	=195	=195
4G-\] 4B-] 4d-]	.	4dd-X\)	4dd-\	.
2B-\ 2d- 2g-	.	8r	8ryy	.
.	.	4.bb-/	(8gg-\L	.
.	.	.	8dd-\	.
.	.	.	8b-\J	.
=196	=196	=196	=196	=196
4r	.	4cc-\	4r)	.
4DD-/	.	4r	8r	.
.	.	.	(8d-\L	.
4D-\ 4c-	.	(4b-/	8e-\	<.
.	.	.	8f\J	[[
=197	=197	=197	=197	=197
!	!	!	!	!LO:DY:a
4G-\ 4B-	.	4g-/)	4g-\)	>
4GG-/	.	4r	4ryy	]
4r	.	4r	4ryy	.
*	*	*v	*v	*
!!LO:LB:g=original
=198	=198	=198	=198
!	!	!LO:TX:a:i:t=animato	!
4BBB-/ 4BB-	.	4f\ 4b- 4dd- 4ff	f
*tuplet	*	*	*
!LO:TUP:b	!	!	!
12EEn/L 12En	.	4r	.
12F>\ 12f>	.	.	.
12GG-/J 12G-	.	.	.
4r	.	4F/ 4f	.
=199	=199	=199	=199
4CCn/ 4Cn	.	4f\ 4an 4ee- 4ff	.
12EEn/L 12En	.	4r	.
12F>\ 12f>	.	.	.
12GG-/J 12G-	.	.	.
4r	.	4F/ 4f	.
=200	=200	=200	=200
*ped	*	*	*
4DD-/ 4F	.	4f\ 4ccn 4ff	.
4r	.	(12F/L	.
.	.	12cn/	.
.	.	12f/J	.
([4F\ 4e-	.	12f\L	.
.	.	12cc\	.
.	.	12ff\J)	.
*Xped	*	*	*
=201	=201	=201	=201
*	*	*tuplet	*
!	!	!LO:TUP:a	!
4F\]) 4d-	.	((<12b-\LL	.
.	.	12f\	.
.	.	12b-\J)	.
4r	.	(<12ff\L	.
.	.	N[<12ff\	.
.	.	[<12bb-\JJ)	.
4DD-/ 4D-	.	4ff\N]) 4bb-] 4fff	.
=202	=202	=202	=202
*^	*	*	*
4Cn/	4CCn/	.	8r	p
.	.	.	(8gg-\L 8eee-	.
(4B-/	2G-\ 2B-	.	8aa-\) 8fff	.
.	.	.	8gg-\ 8eee-	.
4e-/)	.	.	8ff\ 8ddd-	.
.	.	.	8ee-\J 8cccn	.
!!LO:PB:g=original
=203	=203	=203	=203	=203
4F/	4FF/	.	[4ff\ [4ddd-	.
(4d-/	2B-\ 2d-	.	8.ff\L] 8.ddd-]	.
.	.	.	16ff\Jk 16ddd-	.
4f/)	.	.	4dd-\ 4bb-	.
=204	=204	=204	=204	=204
4F/	4FF/	.	8r	.
.	.	.	(8ee-\L 8cccn	.
(4An/	2F\ 2A	.	8ff\) 8ddd-	.
.	.	.	8ee-\ 8ccc	.
4e-/)	.	.	8dd-\ 8bb-	.
.	.	.	8ccn\J 8aan	.
=205	=205	=205	=205	=205
4BB-/	4BB-/	.	[4ee-\ [4cccn	.
(4d-/	2B-\ 2d-	.	8.ee-\L] 8.ccc]	.
.	.	.	16ee-\Jk 16ccc	.
4f/)	.	.	4dd-\ 4bb-	.
*v	*v	*	*	*
=206	=206	=206	=206
4BBB-/ 4BB-	.	4f\ 4b- 4dd- 4ff	f
!LO:TUP:b	!	!	!
12EEn/L 12En	.	4ryy	.
12F>\ 12f>	.	.	.
12GG-/J 12G-	.	.	.
4r	.	4F/ 4f	.
=207	=207	=207	=207
4CCn/ 4Cn	.	4f\ 4an 4ee- 4ff	.
!LO:TUP:b	!	!	!
12EEn/L 12En	.	4ryy	.
12F>\ 12f>	.	.	.
12GG-/J 12G-	.	.	.
4r	.	4F/ 4f	.
!!LO:LB:g=original
=208	=208	=208	=208
*ped	*	*	*
4DDn/ 4Dn	.	4f\ 4cc-X 4ff	.
*	*	*Xtuplet	*
4r	.	12F/L	.
.	.	12c-/	.
.	.	12f/J	.
(4A-\ 4c-X	.	12f\L	.
.	.	12cc-\	.
*Xped	*	*	*
.	.	12ff\J	.
=209	=209	=209	=209
4G-\) 4B-	.	12cc-\L	.
.	.	12e-\	.
.	.	12b-\J	.
4r	.	12ee-\L	.
.	.	N[<12ee-\	.
.	.	[<12bb-\J	.
4GG-/ 4G-	.	4ee-\N] 4bb-] 4eee-	.
=210	=210	=210	=210
*^	*	*	*
4D-X/	4DD-X/	.	8r	p
.	.	.	(8aa-\L 8fff-X	.
(4B-/	2A-\ 2B-	.	8bb-\) 8ggg-	.
.	.	.	8aa-\ 8fff-	.
4f-X/)	.	.	8gg-\ 8eee-	.
.	.	.	8ff-X\J 8ddd-	.
=211	=211	=211	=211	=211
4E-/	4EE-/	.	[4ee-\ [4ccc-	.
(4c-/	2A-\ 2c-	.	8.ee-\L] 8.ccc-]	.
.	.	.	16ee-\Jk 16ccc-	.
4e-/)	.	.	4cc-\ 4aa-	.
=212	=212	=212	=212	=212
4E-/	4EE-/	.	8r	.
.	.	.	(8dd-\L 8bb-	.
(4Gn/	2E-\ 2G	.	8ee-\) 8ccc-	.
.	.	.	8dd-\ 8bb-	.
4d-/)	.	.	8cc-\ 8aa-	.
.	.	.	8b-\J 8ggn	.
!!LO:LB:g=original
=213	=213	=213	=213	=213
4F-X/	4FF-X/	.	[4dd-\ [4bb-	.
(4A-/	2F-\ 2A-	.	8.dd-\L] 8.bb-]	.
.	.	.	16dd-\Jk 16bb-	.
4c-/)	.	.	[4cc-\ [4aa-	.
=214	=214	=214	=214	=214
!	!	!	!LO:TX:b:i:t=poco a poco cresc.	!
4Fn/	4FFn/	.	8cc-\L] 8aa-]	.
.	.	.	(8cc-\ 8aa-	.
(4A-/	2F\ 2A-	.	8ddn\) 8ccc-	.
.	.	.	8cc-\ 8aa-	.
4dn/)	.	.	8a-\ 8ff	.
.	.	.	8f\J 8dd	.
=215	=215	=215	=215	=215
4G-/	4GG-/	.	8r	.
.	.	.	(8g-\L 8ee-	.
(4B-/	2G-\ 2B-	.	8a-\ 8ff	.
.	.	.	8g-\ 8ee-	.
4e-/)	.	.	8b-\ 8gg-	.
.	.	.	8g-\J) 8ee-	.
=216	=216	=216	=216	=216
4Cn/	4CCn/	.	8r	.
.	.	.	(8gg-\L 8eee-	.
(4A-/	2G-\ 2An	.	8aan\) 8ggg-	.
.	.	.	8gg-'\ 8eee-	.
4e-/)	.	.	8ee-'\ 8cccn	.
.	.	.	8ccn'\J 8aa	.
=217	=217	=217	=217	=217
4D-/	4DD-/	.	8r	.
.	.	.	(8dd-\L 8bb-	.
(4F/	2D-\ 2F	.	8ff\) 8cccn	.
.	.	.	8dd-'\ 8bb-	.
4B-/)	.	.	8ff'\ 8ddd-	.
.	.	.	8dd-'\J 8bb-	.
*v	*v	*	*	*
!!LO:LB:g=original
=218	=218	=218	=218
4EE-/ 4E-	.	8r	.
.	.	(8ccn\L 8bb-	.
[2B-\ [2c- [2g-	.	8gg-\) 8cccn	.
.	.	8cc'\ 8bb-	.
.	.	8cc'\ 8aa-	.
.	.	8b-'\J 8gg-	.
=219	=219	=219	=219
8B-\] 8c-] 8g-]	.	8b-/L 8ff	.
8r	.	8g-/ 8ee-	.
4r	.	8g-/ 8ccn	.
.	.	8cn/ 8b-	.
4EEn/ 4En	.	8c/ 8a-	.
.	.	8B-/J 8g-	.
=220	=220	=220	=220
!	!	!LO:TX:b:i:t=dimin.	!
8FF/ 8F	.	8r	.
8r	.	(8A-/L 8f	.
4r	.	8cn/ 8g-	.
.	.	8A-/J) 8f	.
*clefG2	*	*	*
(8cn/L 8a-X	.	4ryy	.
8B-/J) 8g-X	.	.	.
=221	=221	=221	=221
4r	.	(8en/L 8ccn	.
.	.	8cn/J) 8b-	.
(8en/L 8dd-	.	4ryy	.
8d-/J) 8b-	.	.	.
4r	.	(8b-\L 8ggn	.
.	.	8gn\J 8een	.
=222	=222	=222	=222
4r	.	8ccn\L 8aan	.
.	.	8a-\J) 8gg-	.
(8ccn\L 8aa-X	.	4ryy	.
8b-\J) 8gg-X	.	.	.
4r	.	(8een\L 8cccn	.
.	.	8cc\J 8bb-	.
!!LO:LB:g=original
=223	=223	=223	=223
4r	.	8een\L 8ddd-X	.
.	.	8dd-\J) 8bb-	.
(8en/L 8ccn	.	4ryy	.
8d-X/J) 8b-	.	.	.
4r	.	(8cn/L 8a-X	.
.	.	8B-/J 8g-	.
*clefF4	*	*	*
=224	=224	=224	=224
4r	.	8An/) 8g-	.
.	.	8r	.
*ped	*	*tuplet	*
8FFF/ 8FF	.	6r	.
8r	.	.	.
.	.	(12En/	.
4r	.	12F/L	.
.	.	12An/	.
.	.	12Bn/J)	.
*	*	*Xtuplet	*
=225	=225	=225	=225
!LO:TX:b:i:t=marc.	!	!LO:TX:a:i:t=cresc. sempre e stringendo	!
8cn\	.	12e-</L	.
.	.	12dn/	.
8ryy	.	.	.
.	.	12f/J	.
*Xped	*	*	*
8e-\	.	12g-</L	.
.	.	12en/	.
8ryy	.	.	.
.	.	12gn/J	.
4r	.	12f/L	.
.	.	12an/	.
.	.	12bn/J	.
*clefG2	*	*	*
=226	=226	=226	=226
*ped	*	*	*
8cc-\	.	12ee-</L	.
.	.	12ddn\	.
8ryy	.	.	.
.	.	12ff\J	.
*Xped	*	*	*
8ee-\	.	12gg-</L	.
.	.	12een\	.
8ryy	.	.	.
.	.	12ggn\J	.
4r	.	12ff\L	.
.	.	12aan\	.
.	.	12bbn\J	.
!!LO:LB:g=original
=227	=227	=227	=227
*	*	*8va	*
!LO:TX:b:i:t=con Ped.	!	!	!
8cccn\	.	12eeee-</L	.
.	.	12dddn\	.
8ryy	.	.	.
.	.	12fff\J	.
8eee-\	.	12gggg-</L	.
.	.	12eeen\	.
8ryy	.	.	.
.	.	12gggn\J	.
8ccc\	.	12eeee-</L	.
.	.	12ddd\	.
8ryy	.	.	.
.	.	12fff\J	.
=228	=228	=228	=228
*8va	*	*	*
8eee-\	.	12ggg-X</L	.
.	.	12eeen\	.
8ryy	.	.	.
.	.	12gggn\J	.
8cccn\	.	12eee</L	.
.	.	12dddn\	.
8ryy	.	.	.
.	.	12fff\J	.
8eee-X\	.	12ggg-X</L	.
.	.	12eeen\	.
8ryy	.	.	.
.	.	12gggn\J	.
=229	=229	=229	=229
8cccn\	.	12eee-</L	.
.	.	12dddn\	.
8ryy	.	.	.
.	.	12fff\J	.
8eee-\	.	12ggg-X</L	.
.	.	12eeen\	.
8ryy	.	.	.
.	.	12gggn\J	.
8bbbn\	.	12aaa-X</L	.
.	.	12aaan\	.
8ryy	.	.	.
.	.	12ccccn\J	.
*	*	*X8va	*
=230	=230	=230	=230
8ccccn\ 8eeee-	.	4r	.
*X8va	*	*	*
8r	.	.	.
!LO:TX:a:i:t=riten.	!	!	!
4r	.	4r	.
4r	.	4fff~\	f
=231	=231	=231	=231
4ff~\	.	4r	.
4r	.	4f~/	.
*clefF4	*	*	*
4F\	.	4r	.
!!LO:PB:g=original
=232||	=232||	=232||	=232||
*k[b-e-]	*	*k[b-e-]	*
!	!	!LO:TX:a:B:t=Tempo I.	!
8BBB-/ 8BB-	.	2.ff:\ 2.bb-: 2.ddd: 2.fff:	p
!	!	!LO:TX:b:i:t=armonioso	!
8r	.	.	.
!LO:TX:b:i:t=con Ped.	!	!	!
(8F\L	<	.	.
8En\	.	.	.
8G\	.	.	.
8F\J	.	.	.
=233	=233	=233	=233
8B-\L	.	2.dd:\ 2.ff#X: 2.bb-: 2.ddd:	.
8A\	.	.	.
8c\	.	.	.
8B-\	.	.	.
8d\	.	.	.
8B-\J	[	.	.
=234	=234	=234	=234
!	!	!LO:TX:b:i:t=legg.	!
4E-\)	.	8r	.
.	.	(8f#X\L	.
4r	.	8g\	.
.	.	8dd\	.
*clefG2	*	*	*
4b-'\	.	8cc\	.
.	.	8aa\J	.
=235	=235	=235	=235
4e-'/	.	8gg\L	.
.	.	8ddd\	.
4bb-'\	.	8ccc\	.
.	.	8aaa\	.
4ee-'\	.	8ggg\	.
.	.	8ccc\J)	.
*clefF4	*	*	*
=236	=236	=236	=236
*	*	*8va	*
8FF/	.	2.aa:\ 2.ccc: 2.eee-: 2.aaa:	p
8r	.	.	.
(8F\L	<	.	.
8En\	.	.	.
8G\	.	.	.
8F\J	.	.	.
=237	=237	=237	=237
8d\L	.	2.gg:\ 2.ccc: 2.eee-: 2.ggg:	.
8c\	.	.	.
8f\	.	.	.
8e-\	.	.	.
8a\	.	.	.
8g\J	[	.	.
*	*	*X8va	*
=238	=238	=238	=238
8f\)	.	8r	.
8r	.	(8en\L	.
4r	.	8f\	.
!	!	!LO:TX:b:i:t=legg.	!
.	.	8dd\	.
*clefG2	*	*	*
4ee-'\	.	8cc\	.
.	.	8gg\J	.
!!LO:LB:g=original
=239	=239	=239	=239
4dd'\	.	8ff\L	.
.	.	8ddd\	.
4f'/	.	8bb-\	.
.	.	8ggg\	.
4B-'/	.	8fff\	.
.	.	8bb-\J)	.
*clefF4	*	*	*
=240	=240	=240	=240
*	*	*^	*
.	.	.	([8qff/	.
!	!	!	!LO:TX:b:i:t=espress.	!
4GG/	.	2.bb-/)	(4.ff\]	.
4G\ 4B- 4e-	.	.	.	.
.	.	.	8ee-\L	.
4G\ 4B- 4e-	.	.	8dd\	.
.	.	.	8ee-\J)	.
=241	=241	=241	=241	=241
.	.	.	[(8qbb-/	.
4FF/	.	2.bb-/]	(2dd\)	.
4F\ 4B- 4d	.	.	.	.
4F\ 4B- 4d	.	.	8cc\L	.
.	.	.	8b-\J)	.
=242	=242	=242	=242	=242
.	.	.	((8qa/	.
4EE-/	.	(2dd/	4.a\))	.
4E-\ 4A 4c	.	.	.	.
.	.	.	8f#X\L	.
4E-\ 4A 4c	.	4ryy	8a\	.
.	.	.	8g\J	.
=243	=243	=243	=243	=243
4DD/	.	8cc/)	8fn\L	<
.	.	8ryy	(8a\	.
4D\ 4F 4B-	.	2ryy	8b-\	.
.	.	.	8dd\	.
4D\ 4F 4B-	.	.	8ff\	.
.	.	.	8bb-\J)	[
=244	=244	=244	=244	=244
.	.	.	(<8qdd/	.
4GG/	.	2.ddd/	(2dd\) 2bb-	.
4G\ 4B- 4en	.	.	.	.
4G\ 4B- 4e	.	.	8aa\L	.
.	.	.	8gg\J)	.
=245	=245	=245	=245	=245
4AA/	.	2.aa/	(8ff\L	.
.	.	.	8een\	.
4A\ 4d 4f	.	.	8dd\	.
.	.	.	8cc#X\	.
4A\ 4d 4f	.	.	8dd\	.
.	.	.	8ee\J)	.
!!LO:LB:g=original
=246	=246	=246	=246	=246
4AA/	.	(2.aa/	(2ff\	.
4A\ 4c#X 4g	.	.	.	.
4A\ 4c# 4g	.	.	8een\L	.
.	.	.	8a\J	.
=247	=247	=247	=247	=247
4DD/	.	8dd/)	8g#X\L	>
.	.	8r	8b-\	.
[2F\ [2A [2d	.	4r	8a\)	.
.	.	.	(8en\	]
.	.	4r	8gn\	.
.	.	.	8f\J	.
*	*	*v	*v	*
=248	=248	=248	=248
8F\] 8A] 8d]	.	8en\L	.
8r	.	8g\	.
4r	.	8f\)	<
.	.	(8een\	.
4r	.	8gg\	.
.	.	8ff\J)	[[
=249	=249	=249	=249
*Xtuplet	*	*	*
8BBB-/ 8BB-	.	2.ff\ 2.bb- 2.ddd 2.fff	ff
8r	.	.	.
12EEn/L 12En	.	.	.
12F>\ 12f>	.	.	.
12BB-/J 12B-	.	.	.
4d\ 4dd	.	.	.
=250	=250	=250	=250
8DD/ 8D	.	2.dd\ 2.ff#X 2.bb- 2.ddd	.
8r	.	.	.
12FF#X/L 12F#X	.	.	.
12A>\ 12a>	.	.	.
12BB-/J 12B-	.	.	.
4d\ 4dd	.	.	.
=251	=251	=251	=251
8DD/ 8D	.	4r	.
8r	.	.	.
2B-^\ 2c 2g	.	16r	.
.	.	(16bn\LL	.
.	.	16cc\	.
.	.	16ee-\JJ	.
.	.	16ff#X\LL	.
.	.	16gg\	.
.	.	16ccc\	.
.	.	16eee-\JJ	.
!!LO:LB:g=original
=252	=252	=252	=252
8E-\	.	16aaa\LL)	.
.	.	(16bbn\	.
8r	.	16ccc\	.
.	.	16eee-\JJ	.
2B-\ 2c 2g	.	16fff#X\LL	.
*	*	*8va	*
.	.	16ggg\	.
.	.	16cccc\	.
.	.	16eeee-\JJ	.
.	.	8gggg\)	.
.	.	8r	.
*	*	*X8va	*
=253	=253	=253	=253
*	*	*8va	*
8FFF/ 8FF	.	2.aa\ 2.ccc 2.eee- 2.aaa	.
8r	.	.	.
12EEn/L 12En	.	.	.
12F>\ 12f>	.	.	.
12AA/J 12A	.	.	.
4c\ 4cc	.	.	.
=254	=254	=254	=254
8GGG/ 8GG	.	2.gg\ 2.bb- 2.eee- 2.ggg	.
8r	.	.	.
12FF#X/L 12F#X	.	.	.
12G>\ 12g>	.	.	.
12BB-/J 12B-	.	.	.
4e-\ 4ee-	.	.	.
*	*	*X8va	*
=255	=255	=255	=255
8AAA/ 8AA	.	4r	.
8r	.	.	.
2F\ 2c 2e-	.	16r	.
.	.	(16f\LL	.
.	.	16cc\	.
.	.	16dd\JJ	.
.	.	16ee-\LL	.
.	.	16ff\	.
.	.	16ccc\	.
.	.	16eee-\JJ	.
*clefG2	*	*	*
=256	=256	=256	=256
8g/	.	16ddd\LL)	.
.	.	(16ff\	.
8r	.	16bb-\	.
.	.	16ddd\JJ	.
*	*	*8va	*
2dd\ 2gg 2bb-	.	16eeen\LL	.
.	.	16fff\	.
.	.	16bbb-\	.
.	.	16dddd\JJ	.
.	.	8ffff\)	.
.	.	8r	.
*	*	*X8va	*
*clefF4	*	*	*
!!LO:LB:g=original
=257	=257	=257	=257
*^	*	*	*
!	!	!	!LO:TX:b:i:t=meno	!
4C-X/	4C-/yy	.	8r	.
.	.	.	(4cc\ 4ccc	f
(4d/	2c-X\ 2d-X	.	.	.
.	.	.	8dd-X\L) 8ddd-X	.
4a-X/)	.	.	8ee-\ 8eee-	.
.	.	.	8ff\J 8fff	.
=258	=258	=258	=258	=258
4BB-/	4BB-/yy	.	4.aa-X\ 4.aaa-X	.
(4d-X/	2B-\ 2d-	.	.	.
.	.	.	8gg-X\L 8ggg-X	.
4g-X/)	.	.	8ff\ 8fff	.
.	.	.	8ff-X\J 8fff-X	.
=259	=259	=259	=259	=259
4F/	4FF/	.	4.ee-\ 4.eee-	.
(4d-X/	2c-X\ 2d-	.	.	.
.	.	.	8ee--\L 8eee--	.
4a-X/)	.	.	8dd-X\ 8ddd-X	.
.	.	.	8ccn\J 8cccn	.
=260	=260	=260	=260	=260
4F-X/	4GG-X/yy 4GG-	.	4.cc-X\ 4.ccc-X	.
(4B-/	2G-X\ 2B-	.	.	.
.	.	.	8b-\ 8bb-	.
8d-X/)	.	.	8a-X\L 8aa-X	.
8ryy	.	.	8g-X\J 8gg-X	.
=261	=261	=261	=261	=261
4E-/	4EE-/	.	4.f\ 4.ff	p
(4An/	2E-\ 2A	.	.	.
.	.	.	8gn\L 8ggn	.
4c/)	.	.	8g#X\ 8gg#X	.
.	.	.	8a\J 8aa	.
=262	=262	=262	=262	=262
4ryy	4DD/	.	4.cc\ 4.ccc	.
(4F/	2D\ 2F	.	.	.
.	.	.	8b-\L 8bb-	.
4B-/)	.	.	8a\ 8aa	.
.	.	.	8b-\J 8bb-	.
!!LO:LB:g=original
=263	=263	=263	=263	=263
4AA/	4AA-X/yy	.	4.cc-X\ 4.ccc-X	.
(4c/	2A-X\ 2c-X	.	.	.
.	.	.	8ccn\L 8cccn	.
4f/)	.	.	8dd-X\ 8ddd-X	.
.	.	.	8ddn\J 8dddn	.
=264	=264	=264	=264	=264
4GG/	4GG/yy	.	4.ff\ 4.fff	.
(4B-/	2G\ 2B-	.	.	.
.	.	.	8ee-\L 8eee-	.
4e-/)	.	.	8dd\ 8ddd	.
.	.	.	8ee-\J 8eee-	.
=265	=265	=265	=265	=265
4CC/	4C/	.	8r	.
!	!	!	!LO:TX:b:i:t=cresc. e molto espress.	!
.	.	.	(4dd\ 4ddd	.
(4A/	2F#X\ 2A	.	.	.
.	.	.	8ee-\L) 8eee-	.
4d/)	.	.	8een\ 8eeen	.
.	.	.	8ff#X\J 8fff#X	.
=266	=266	=266	=266	=266
4BB-/	4BBB-/	.	4.aa\ 4.aaa	.
(4d/	2B-\ 2d	.	.	.
.	.	.	8gg\L 8ggg	.
4g/)	.	.	8ff#X\ 8fff#X	.
.	.	.	8gg\J 8ggg	.
=267	=267	=267	=267	=267
4E-/	4EE-/	.	8aa\ 8aaa	.
.	.	.	4ccc\ 4cccc	.
(4B-/	2G\ 2B-	.	.	.
.	.	.	8bb-\L 8bbb-	.
4e-/)	.	.	8gg\ 8ggg	.
.	.	.	8ee-\J 8eee-	.
=268	=268	=268	=268	=268
4E-/	4EE-/	.	4.dd\ 4.ddd	.
(4B-/	2E-\ 2G	.	.	.
.	.	.	8cc\L 8ccc	.
4c/)	.	.	8a\ 8aa	.
.	.	.	8b-\J 8bb-	.
*v	*v	*	*	*
!!LO:PB:g=original
=269	=269	=269	=269
*ped	*	*	*
8FF/	.	8f\ 8b- 8dd 8ff	f
8r	.	8r	.
*clefG2	*	*clefF4	*
*	*	*tuplet	*
!	!	!LO:TUP:a	!
2d^/ 2f 2b-	.	12r	.
*Xped	*	*	*
.	.	(12C#X\L	<
.	.	12E-\J	.
!	!	!LO:TUP:a	!
.	.	12D\L	.
.	.	12F\	.
.	.	12B-\J	[
*clefF4	*	*Xtuplet	*
=270	=270	=270	=270
*ped	*	*	*
8FF/	.	8A\)	.
8r	.	8r	.
*clefG2	*	*	*
2c#X/ 2en 2a	.	12r	.
*Xped	*	*	*
.	.	(12G#X\L	<
.	.	12B-\J	.
.	.	12A\L	.
.	.	12en\	.
.	.	12g\J	[
*clefF4	*	*	*
=271	=271	=271	=271
*ped	*	*	*
8FF/	.	8f\)	.
8r	.	8r	.
*	*	*clefG2	*
2B-^<\ 2d 2a-X	.	12r	.
*Xped	*	*	*
.	.	(12en/L	<
.	.	12g/J	.
.	.	12f/L	.
.	.	12b-/	.
.	.	12ff/J	[
=272	=272	=272	=272
8FF/	.	8en/) 8b- 8een	.
8r	.	8r	.
2G^<\ 2B- 2en	.	12r	.
.	.	(12a\L	<
.	.	12cc\J	.
.	.	12b-\L	.
.	.	12ee\	.
.	.	12bb-\J	[
=273	=273	=273	=273
*ped	*	*	*
8FF/	.	8f\) 8ee-X 8aa	.
8r	.	8r	.
(<4G-X\	.	12c</L	.
!	!	!LO:TX:a:i:t=sempre	!
.	.	(12a\ 12ee-	.
.	.	12e-\J)	.
4F\	.	12Bn</L	.
.	.	(12a-X\ 12dd	.
.	.	12d\J)	.
!!LO:LB:g=original
=274	=274	=274	=274
*Xped	*	*	*
4A-X\	.	(12d</L	.
!	!	!LO:TX:a:i:t=accelerando e cresc.	!
.	.	12bn\ 12ff	.
.	.	12f\J)	.
4G\	.	(12d-X</L	.
.	.	12b-X\ 12een	.
.	.	12en\J)	.
4B-\)	.	(12en</L	.
.	.	12dd-X\ 12gg	.
.	.	12g\J)	.
=275	=275	=275	=275
*ped	*	*	*
8FF/	.	4ryy	.
8r	.	.	.
4B-\	.	12en</L	.
.	.	12dd-X\ 12gg	.
.	.	12g\J	.
4A\	.	12e-X</L	.
.	.	12cc\ 12ff#X	.
.	.	12f#X\J	.
=276	=276	=276	=276
*Xped	*	*	*
4c\	.	12f#X</L	.
.	.	12ee-\ 12aa	.
.	.	12a\J	.
4Bn\	.	12fn</L	.
.	.	12dd\ 12aa-X	.
.	.	12a-X\J	.
4d-X\	.	12a-X</L	.
.	.	12ff\ 12bbn	.
.	.	12bn\J	.
=277	=277	=277	=277
*ped	*	*	*
8FF/	.	4ryy	.
8r	.	.	.
*clefG2	*	*	*
4e-/	.	12an</L	.
.	.	12gg-X\ 12ccc	.
.	.	12cc\J	.
4g-X/	.	12cc</L	.
.	.	12aa\ 12eee-	.
.	.	12ee-\J	.
=278	=278	=278	=278
4a/	.	12ee-</L	.
*	*	*8va	*
.	.	12ccc\ 12ggg-X	.
.	.	12gg-X\J	.
4cc/	.	12ggg-X</L	.
.	.	12eee-\ 12aaa	.
.	.	12aa\J	.
4ee-/	.	12aaa</L	.
.	.	12ggg-\ 12cccc	.
.	.	12ccc\J	.
!!LO:LB:g=original
=279	=279	=279	=279
4gg-X/	.	12cccc</L	.
.	.	12aaa\ 12eeee-	.
.	.	12eee-\J	.
4ffn/	.	12bbbn</L	.
.	.	12aaa-X\ 12dddd	.
.	.	12ddd\J	.
4gg-/	.	12cccc</L	.
.	.	12aaan\ 12eeee-	.
.	.	12eee-\J	.
=280	=280	=280	=280
4ggn/	.	12dddd-X</L	.
.	.	12bbb-\ 12eeeen	.
.	.	12eeen\J	.
4ff#X/	.	12cccc</L	.
.	.	12aaa\ 12eeee-X	.
.	.	12eee-X\J	.
4gg/	.	12dddd-</L	.
.	.	12bbb-\ 12eeeen	.
.	.	12eee-\J	.
=281	=281	=281	=281
4aa/	.	12eeee-X</L	.
.	.	12cccc\ 12ffff	.
.	.	12fff\J	.
4gg#X/	.	12dddd</L	.
.	.	12bbbn\ 12eeeen	.
.	.	12eeen\J	.
4aa/	<	12eeee</L	.
.	.	12cccc\ 12ffff	.
.	.	12fff\J	.
=282	=282	=282	=282
4bb-/	.	12eeeen</L	.
.	.	12dddd-X\ 12gggg-X	.
.	.	12ggg-X\J	.
4gg#X/	.	12dddd-</L	.
.	.	12bbbn\ 12eeeen	.
.	.	12eeen\J	.
4aa/	[[	12eeee-X</L	.
.	.	12cccc\ 12ffff	.
*Xped	*	*	*
.	.	12fff\J	.
=283	=283	=283	=283
*ped	*	*	*
4bb-X\	.	12dddd</L	.
.	.	(12dddd\	f
.	.	12bbb-\J	.
4r	.	12ffff\L	.
.	.	12bbb-\	.
.	.	12fff\J	.
4r	.	12ddd\L	.
.	.	12bb-\	.
*Xped	*	*	*
.	.	12ff\J)	.
!!LO:LB:g=original
=284	=284	=284	=284
*ped	*	*	*
4e-:\ 4b-: 4gg-X:	.	12r	.
.	.	(12cccc\L	.
.	.	12ggg-X\J	.
4r	.	12dddd\L	.
.	.	12ggg-\	.
.	.	12ddd\J	.
4r	.	12ccc\L	.
.	.	12gg\	.
*Xped	*	*	*
.	.	12ccc\J)	.
*	*	*X8va	*
=285	=285	=285	=285
*ped	*	*	*
4B-:/ 4f: 4dd:	.	12ff:\L 12bb-: 12fff:	.
.	.	(12ddd\	.
.	.	12bb-\J	.
4r	.	12fff\L	.
.	.	12bb-\	.
.	.	12ff\J	.
4r	.	12dd/L	.
.	.	12b-/	.
*Xped	*	*	*
.	.	12f/J)	.
*clefF4	*	*	*
=286	=286	=286	=286
*ped	*	*	*
4E-:\ 4B-: 4g-X:	.	12r	.
.	.	(12ccc\L	.
.	.	12gg-X\J	.
4r	.	12ddd\L	.
.	.	12gg-\	.
.	.	12dd\J	.
4r	.	12cc\L	.
.	.	12g-X\	.
*Xped	*	*	*
.	.	12cc\J)	.
=287	=287	=287	=287
!LO:TX:a:i:t=strepitoso	!	!	!
8BB-:\ 8F: 8d:	.	8f:\ 8b-: 8ff:	ff
8r	.	8r	.
*	*	*clefF4	*
12AAA\L 12AA	.	4r	.
12BB->/ 12B->	.	.	.
12DD\J 12D	.	.	.
12C#X>/L 12c#X>	.	4ryy	.
12DD\ 12D	.	.	.
12E->/J 12e->	.	.	.
=288	=288	=288	=288
12EEn\L 12En	.	4ryy	.
12F>/ 12f>	.	.	.
12CC#X\J 12C#X	.	.	.
4ryy	.	12D/L 12d	.
.	.	12CC<\ 12C<	.
.	.	12En/J 12en	.
*	*	*clefG2	*
12FF/L 12F	.	4ryy	.
12A>\ 12a>	.	.	.
12BB-/J 12B-	.	.	.
!!LO:LB:g=original
=289	=289	=289	=289
4r	.	8d/ 8dd	.
.	.	8r	.
12EEn/L 12En	.	4ryy	.
12A>\ 12a>	.	.	.
12AA/J 12A	.	.	.
4ryy	.	12B-\L 12b-	.
.	.	12C#X</ 12c#X<	.
.	.	12d\J 12dd	.
=290	=290	=290	=290
12En/L 12en	.	4ryy	.
12f>\ 12ff>	.	.	.
12C#X/J 12c#X	.	.	.
4r	.	12d\L 12dd	.
.	.	12E-</ 12e-<	.
.	.	12f\J 12ff	.
*clefG2	*	*	*
12A/L 12a	.	4ryy	.
12b->\ 12bb->	.	.	.
12d/J 12dd	.	.	.
=291	=291	=291	=291
4r	.	8ff\ 8fff	.
.	.	8r	.
12A/L 12a	.	4ryy	.
12b->\ 12bb->	.	.	.
12c#X/J 12cc#X	.	.	.
4ryy	.	12dd\L 12ddd	.
.	.	12en</ 12een<	.
.	.	12ff\J 12fff	.
=292	=292	=292	=292
*8va	*	*	*
16aa/LL 16aaa	.	2.ryy	.
16bb->\ 16bbb->	.	.	.
16ccc#X/ 16cccc#X	.	.	.
16ddd>\JJ 16dddd>	.	.	.
16eeen/LL 16eeeen	.	.	.
16fff>\ 16ffff>	.	.	.
16ccc#/ 16cccc#	.	.	.
16ddd>\JJ 16dddd>	.	.	.
16aa/LL 16aaa	.	.	.
16bb->\ 16bbb->	.	.	.
16een/ 16eee	.	.	.
16ff>\JJ 16fff>	.	.	.
*X8va	*	*	*
!!LO:LB:g=original
=293	=293	=293	=293
16c#X/LL 16cc#X	.	2.ryy	.
16dd>\ 16ddd>	.	.	.
16en/ 16een	.	.	.
16ff>\JJ 16fff>	.	.	.
16c#/LL 16cc#	.	.	.
16dd>\ 16ddd>	.	.	.
16A/ 16a	.	.	.
16b->\JJ 16bb->	.	.	.
16En/LL 16en	.	.	.
16f>\ 16ff>	.	.	.
*clefF4	*	*	*
16C#X/ 16c#X	.	.	.
16d>\JJ 16dd>	.	.	.
=294	=294	=294	=294
16A/LL 16AA	.	4ryy	.
16B->\ 16b->	.	.	.
16C#X/ 16c#X	.	.	.
16d>\JJ 16dd>	.	.	.
16A/LL 16AA	.	4ryy	.
16B->\ 16b->	.	.	.
16EEn/ 16En	.	.	.
16F>\JJ 16f>	.	.	.
*	*	*clefF4	*
16CC#X/LL 16C#X	.	4ryy	.
16BB->\ 16B->	.	.	.
16EEn/ 16En	.	.	.
16F>\JJ 16f>	.	.	.
=295	=295	=295	=295
*ped	*	*	*
4BBB-/ 4BB-	.	2.r	.
4r	.	.	.
4r	.	.	.
*clefG2	*	*clefG2	*
=296	=296	=296	=296
4B-/ 4g-X 4b-	.	4dd\ 4gg-X 4ddd	.
4r	.	4r	.
*clefF4	*	*	*
8.r	.	4r	.
16BBBB-/ 16BBB-	.	.	.
=297	=297	=297	=297
2.BB-\ 2.F 2.B-	.	2.d/ 2.f 2.b- 2.dd	.
*Xped	*	*	*
==	==	==	==
*-	*-	*-	*-
!!!RDF**kern: N = linked
!!!RDF**kern: < = below
!!!RDF**kern: > = above
!!!system-decoration: {(s1,s2)}
!!!ENC: Marta Opryszak
!!!END: 2022-03-26
!!!AIN: 1 piano
!!!ENC: Urszula Świątek
!!!END: 2022-03-31
